X: 16643
T: Hanley's Tweed
R: reel
M: 4/4
K: Adorian
A2eA FAeA|deAB ~G3B|AE~E2 ABcd|~e3f g2fg|
eaag edef|~g3a gedg|edBA BG~G2|1 BedB ~A3B:|2 BedB ~A2cd||
eaaf g2fg|egdg ed B/c/d|eaaf ~g2fg|dG~G2 BG^cd|
ea~a2 bg~g2|agab g2ed|edBA BG~G2|1 BedB A4:|2 BedB A3G||

